X: 35579
T: Ryan's Rant
R: reel
M: 4/4
K: Gdorian
A|BG~G2 BGdc|dBGB AFFA|BG~G2 Bcde|fdcB ADFA|
BG~G2 BGdc|(3BdB GB AFFA|BG~G2 Bcde|fdcB AGFA||
B2fB gBfB|B2 fd cAFA|B2fB gBfB|cedc BGGA|
B2fB gBfB|B2 fd cAFA|GABd bage|fdcB ADFA||

